X:3773
T:Danny MacKay
R:strathspey
C:Paul S. Cranford
O:20th Century Cape Breton
D:The Lighthouse, Cranford Publications
B:The Lighthouse Collection, ISBN 0-9691181-5-5
N:Contacts ...
N:..... Cranford Publications <http://www.cranfordpub.com>
Z:This abc transcription is for personal use only,
Z:provided this notice remains attached.
Z:Used by permission of the composer and publisher.
Z:Paul Stewart Cranford 
Q:244
L:1/8
M:C
K:G
A|B<Gd>G B<GG>A|B<Gd>B c/B/A/G/ =3DF>A|B<Gd>G B>cd<g|=3Df>dc>A B<GG:|!
f|g>be<g d>gB>g|d>gB>d c/B/A/G/ =3DF>^f|g>be<g d>gB>d|c/B/A/G/ =3DF>A B<GG^f=
|!
g>be<g d>g (3Bgg|d>gB>d c/B/A/G/ =3DF>A|B<Gd>G B>cd<g|=3Df>dc>A B<GG|]!
